public/editor-src/editor/icons/fa/microphone-lines.svg

<svg xmlns="http://www.w3.org/2000/svg" viewBox="0 0 384 512"><!--! Font Awesome Free 6.4.0 by @fontawesome - https://fontawesome.com License - https://fontawesome.com/license/free (Icons: CC BY 4.0, Fonts: SIL OFL 1.1, Code: MIT License) Copyright 2023 Fonticons, Inc.--><path d="M96 96v160c0 53 43 96 96 96s96-43 96-96h-80c-8.8 0-16-7.2-16-16s7.2-16 16-16h80v-32h-80c-8.8 0-16-7.2-16-16s7.2-16 16-16h80v-32h-80c-8.8 0-16-7.2-16-16s7.2-16 16-16h80c0-53-43-96-96-96S96 43 96 96zm224 144v16c0 70.7-57.3 128-128 128S64 326.7 64 256v-40c0-13.3-10.7-24-24-24s-24 10.7-24 24v40c0 89.1 66.2 162.7 152 174.4V464h-48c-13.3 0-24 10.7-24 24s10.7 24 24 24h144c13.3 0 24-10.7 24-24s-10.7-24-24-24h-48v-33.6c85.8-11.7 152-85.3 152-174.4v-40c0-13.3-10.7-24-24-24s-24 10.7-24 24v24z"/></svg>

<svg xmlns="http://www.w3.org/2000/svg" viewBox="0 0 384 512"><!--! Font Awesome Free 6.4.0 by @fontawesome - https://fontawesome.com License - https://fontawesome.com/license/free (Icons: CC BY 4.0, Fonts: SIL OFL 1.1, Code: MIT License) Copyright 2023 Fonticons, Inc. --><path d="M96 96V256c0 53 43 96 96 96s96-43 96-96H208c-8.8 0-16-7.2-16-16s7.2-16 16-16h80V192H208c-8.8 0-16-7.2-16-16s7.2-16 16-16h80V128H208c-8.8 0-16-7.2-16-16s7.2-16 16-16h80c0-53-43-96-96-96S96 43 96 96zM320 240v16c0 70.7-57.3 128-128 128s-128-57.3-128-128V216c0-13.3-10.7-24-24-24s-24 10.7-24 24v40c0 89.1 66.2 162.7 152 174.4V464H120c-13.3 0-24 10.7-24 24s10.7 24 24 24h72 72c13.3 0 24-10.7 24-24s-10.7-24-24-24H216V430.4c85.8-11.7 152-85.3 152-174.4V216c0-13.3-10.7-24-24-24s-24 10.7-24 24v24z"/></svg>
